X: 758
T: Air Tune, The
R: reel
M: 4/4
K: Dmajor
Affe efed|f/g/a de efed|Beed fded|BA2A BAFG|
Fffe efed|f/g/a de fg/f/ ed|dBBe dA B/c/d|1 F2GE D4:|2 F2GE D efg||
a2ga fgef|edcd FADA|Beed fded|BA A/A/A BAFG|
a2ga fgef|edcd FA D/E/F|GBBA B/c/d BA|1 Affe defg:|2 Affe d4||

